X:1
T:Care gioie
T:Care gioie
T:Claudio Saracini
T:Aria
T:Source : Le secondo Musische per cantar e sonar---Venetia---A.Vincenti---1620. Editor : André Vierendeels (04/12/15).
T:Notes : Original clefs : C1, F4 Editorial accidentals above the staff   
C:Claudio Saracini
%%score 1 2
L:1/8
Q:1/4=90
M:3/4
K:F
V:1 treble nm="Soprano" snm="S"
V:2 bass nm="BC" snm="BC"
V:1
 F4 G2 | A4 A2 | B4 G2 | A4 A2 | c4 B2 | A4 F2 | G4 G2 | F4 F2 :: z2 A2 B2 | c4 c2 | d4 =B2 | %11
w: Ca- re|gio- ie,|che le|no- ie,|de so-|spir man-|da- te'in|ban- do.|Quel di-|let- to|ch'o nel|
w: Hor non|fin- ge,|hor non|pin- ge,|con sua|squa- dra,|fal- sa'e|va- ga.|So- no|va- no|quel- la|
w: Bell' a-|vo- rio,|pur mio|glo- rio,|che per|mil- le|dar- di'e|fa- ci.|Che m'a-|ven- ti|hor con-|
w: Fre- sche|ro- se,|o- ve|po- se,|d'i- bl'al|mel cor-|te- se'a-|mo- re.|Pur de|li- bo|gra- to|
w: Pa- ro-|let- te,|vez- zo-|set- te,|per cui'|gia be-|ar mi|sen- to.|Pur v'as-|col- to|ne mi'e|
 c4 c2 | G4 A2 | B4 c2 | A4 A2 | G4 G2 | A4 G2 | F4 G2 | E4 E2 | D4 D2 :| %20
w: pet- to,|sco- pran|gl'oc- chi|sfan al-|lan- do,|sco- pran|gl'oc- chi|sfan al-|lan- do.|
w: ma- no,|che si|dol- ce'il|sen m'in-|pia- ga,|che si|dol- ce'il|sen m'in-|pia- ga.|
w: sen- ti,|ch'io ti|por- ga|mil- le|ba- ci,|ch'io ti|por- ga|mil- le|ba- ci.|
w: ci- bo,|pre- mio'al-|tier del|mio do-|lo- re,|pre- mio'al-|tier del|mio do-|lo- re.|
w: tol- to,|d'a l'Au-|ro- ra'il|mio con-|ten- to,|d'a l'Au-|ro- ra'il|mio con-|ten- to.|
V:2
"^6)   Fre-        na,         fre-               a,             lin-              gua         pie-             na,\n7)    Ma         va-         neg-              gio,         me               na-          veg-            gio,\n" D,4 C,2 | %1
 F,4 F,,2 | B,,4 C,2 | F,,4 F,,2 | F,,4 G,,2 | A,,4 D,2 | C,4 C,2 | F,,4 F,,2 :: %8
"^6)  Sai   l'Au-     ro-        ra         s'in-       na-      mo-      ra,       ed'         è          scal-       tr'a\n7)   A     pur       Gio-      ve         non        ri-       tro-       ve,       for-       ma        no-        va'e" z2 F,,2 G,,2 | %9
 A,,4 A,,2 | G,,4 G,,2 | C,4 C,2 | C,4 F,2 | G,4 C,2 | D,4 D,2 | G,,4 G,,2 | F,,4 C,2 | D,4 G,,2 | %18
 A,,4 A,,2 | D,4 D,2 :| %20

